static/app-icons/light-theme/SterlingSupplyChain.svg

<svg xmlns="http://www.w3.org/2000/svg" viewBox="0 0 32 32"><defs><linearGradient id="a" x1="6" y1="24.5" x2="27" y2="24.5" gradientUnits="userSpaceOnUse"><stop offset=".1" stop-opacity="0"/><stop offset=".65"/></linearGradient><linearGradient id="b" x1="12.72" y1="27.967" x2="12.72" y2="16" gradientUnits="userSpaceOnUse"><stop offset="0" stop-color="#fff" stop-opacity=".05"/><stop offset=".8" stop-color="#fff"/></linearGradient><linearGradient id="d" y1="32" x2="32" gradientUnits="userSpaceOnUse"><stop offset=".1" stop-color="#08bdba"/><stop offset=".9" stop-color="#0f62fe"/></linearGradient><mask id="c" x="0" y="0" width="32" height="32" maskUnits="userSpaceOnUse"><path d="M30 16a13.99 13.99 0 10-4.1 9.9l-1.414-1.414A11.992 11.992 0 014.049 17h25.9c.024-.332.051-.662.051-1zM4.051 15A12.011 12.011 0 0112.79 4.449 24.336 24.336 0 0010.037 15zm7.982 0a21.788 21.788 0 013.3-10.956 5.11 5.11 0 011.342 0A21.788 21.788 0 0119.967 15zm9.93 0A24.322 24.322 0 0019.21 4.449 12.011 12.011 0 0127.949 15z" fill="#fff"/><path fill="url(#a)" d="M6 18h21v13H6z"/><path d="M15.441 27.967A21.7 21.7 0 0112 16h-2a24.135 24.135 0 002.824 11.56 11.994 11.994 0 002.617.407z" fill="url(#b)"/></mask></defs><g data-name="Layer 2"><g data-name="Light theme icons"><g mask="url(#c)"><path fill="url(#d)" d="M0 0h32v32H0z"/></g><path d="M26 30h-5v-2h5v-2h-3a2 2 0 01-2-2v-2a2 2 0 012-2h5v2h-5v2h3a2 2 0 012 2v2a2 2 0 01-2 2z" fill="#001d6c"/></g></g></svg>

<svg xmlns="http://www.w3.org/2000/svg" xmlns:xlink="http://www.w3.org/1999/xlink" viewBox="0 0 32 32"><defs><style>.cls-1{fill:#fff;}.cls-2{fill:url(#linear-gradient);}.cls-3{fill:url(#linear-gradient-2);}.cls-4{mask:url(#mask);}.cls-5{fill:url(#linear-gradient-3);}.cls-6{fill:#001d6c;}</style><linearGradient id="linear-gradient" x1="6" y1="24.5" x2="27" y2="24.5" gradientUnits="userSpaceOnUse"><stop offset="0.1" stop-opacity="0"/><stop offset="0.65"/></linearGradient><linearGradient id="linear-gradient-2" x1="12.72" y1="27.967" x2="12.72" y2="16" gradientUnits="userSpaceOnUse"><stop offset="0" stop-color="#fff" stop-opacity="0.05"/><stop offset="0.8" stop-color="#fff"/></linearGradient><mask id="mask" x="0" y="0" width="32" height="32" maskUnits="userSpaceOnUse"><path class="cls-1" d="M30,16a13.99,13.99,0,1,0-4.1,9.9l-1.414-1.414A11.992,11.992,0,0,1,4.049,17h25.9C29.973,16.668,30,16.338,30,16ZM4.051,15A12.011,12.011,0,0,1,12.79,4.449,24.336,24.336,0,0,0,10.037,15Zm7.982,0a21.788,21.788,0,0,1,3.3-10.956,5.11,5.11,0,0,1,1.342,0A21.788,21.788,0,0,1,19.967,15Zm9.93,0A24.322,24.322,0,0,0,19.21,4.449,12.011,12.011,0,0,1,27.949,15Z"/><rect class="cls-2" x="6" y="18" width="21" height="13"/><path class="cls-3" d="M15.441,27.967A21.7,21.7,0,0,1,12,16H10a24.135,24.135,0,0,0,2.824,11.56A11.994,11.994,0,0,0,15.441,27.967Z"/></mask><linearGradient id="linear-gradient-3" y1="32" x2="32" gradientUnits="userSpaceOnUse"><stop offset="0.1" stop-color="#08bdba"/><stop offset="0.9" stop-color="#0f62fe"/></linearGradient></defs><g id="Layer_2" data-name="Layer 2"><g id="Light_theme_icons" data-name="Light theme icons"><g class="cls-4"><rect class="cls-5" width="32" height="32"/></g><path class="cls-6" d="M26,30H21V28h5V26H23a2,2,0,0,1-2-2V22a2,2,0,0,1,2-2h5v2H23v2h3a2,2,0,0,1,2,2v2A2,2,0,0,1,26,30Z"/></g></g></svg>
